!!!ONB: MCCC : IFM0075_02 : Extracted Monophonic Melody
!!!COM: Mendelssohn, Felix
!!!OPR: Lieder ohne Worte
!!!OMV: 2
!!!SCT: Op.19b
!!!ODT: 1829///
**kern
*staff1
*clefG2
*k[]
*C:
*M3/8
8ee
=2
8ee
8dd
8cc
=3
16dd
16cc
8cc
8b
=4
8ff
8ff
8ff
=5
4ff[
8ff]
=6
4aa
8aa
=7
8gg#
8ff
8ff
=8
8ee
8dd
8dd
=9
8cc
4b
=10
4.r
=11
16dd
16cc
8cc
8b
=12
8ff
8ff
8ff
=13
4ff[
8ff]
=14
8ee
8ee
8ee
=15
16gg
16gg
8ff#
8ee
=16
8ee
8ee
8ee
=17
16gg
16gg
8ff#
8ee
=18
16ee
16ee
16ee
16ee
16ee
16dd
=19
16dd
16cc
16cc
16b
16b
16b-
=20
8ff#
8ff#
8cc[
=21
8cc]
8b
8b
=22
8a
16e
16e
16a
16a
=23
8b
8gg
8gg
=24
8ff#
8r
8r
=25
8g
8g
8dd
=26
8dd
8dd[
8dd]
=27
16a
16a
16b
16b
8cc[
=28
16cc]
16B
16B
32f#
32e
16e
16e
=29
8b
8b
8b
=30
8f#
4e
=31
4e
16e
16e
=32
8f[
8f]
16f
16f
=33
8f[
8f]
16f
16f
=34
16a
16a
8a
8g#
=35
4g#
16g#
16g#
=36
8a[
8a]
16a
16a
=37
8a[
8a]
16a
16a
=38
16cc
16cc
8cc
8b
=39
4dd
16dd
16dd
=40
16b
16a
8a
8g#
=41
8r
8r
8ee
=42
8ee
8dd
8cc
=43
16dd
16cc
8cc
8b
=44
8ff
8ff
8ff
=45
4ff[
8ff]
=46
4aa
8aa
=47
8gg#
8ff
8ff
=48
8ee
8dd
8dd
=49
8cc
8b
8b
=50
8ee
8ee
8cc
=51
8cc[
8cc]
8b-
=52
8gg
16gg
16ff
16ee
16dd
=53
8cc
8b-
8a
=54
8a
8cc
8dd
=55
8ee
8ee
8ee
=56
8ee
8ee
16dd
16dd
=57
8dd[
8dd]
8aa
=58
8aa
8gg
8ff
=59
8ee
8ee
8gg
=60
8gg
8ff
8ee
=61
8dd
16dd
16cc
16b
16a
=62
16a
16b
8cc
8dd
=63
8ee
8ee
8ee
=64
8ee
8ee
8dd
=65
8dd
8dd
8cc
=66
8cc
16cc
16cc
8a
=67
8a
4a
=68
4a
8g
=69
8g
8B-
8e
=70
8d
8e
8f
=71
8f
8A
8A
=72
8A[
8A]
8r
=73
4.A
=74
4.r
=75
4.r
=76
4.r
=77
4.r
=78
8r
8r
8aa
=79
8gg
8gg
8ff
=80
64ee
64ff
32gg
16ff
8ff
8ee
=81
8bb-
8bb-
8bb-
=82
4bb-
8bb-
=83
4.aa[
=84
4.aa]
=85
8ff
8ff
8ff
=86
4.ff
=87
4.ff
=88
4.ff[
=89
4.ff]
=90
4ee
8A
=91
4A
8A
=92
4.A[
=93
4A]
8r
==
*-
